FINK
CUT[ICH BIN EIN DEUTSCHER KNABE]
REG[Europa, Mitteleuropa, Deutschland]
KEY[F0373  08 Bb 4/4]
MEL[-5_  1_1_2_2_  3_.21_
    -5_  -6_421_-7_  1__0_
    3_  2_.1-7_1_  2_.32_
    1_  -7_-7_-6-5#-6-7  -5__0_
    -5_  2_2_3_3_  4_.32_
    2_  3_3_4_4_  5_.43_
    -5_  3_2_1_-7_  -6_.1-5_
    1_  2_421_-7_  1__0_ //] >>
FCT[Jugend - Lied, patriotisch, national]
